static/img/common/ico-troubleshooting-q.svg

<svg width="16" height="27" viewBox="0 0 16 27" fill="none" xmlns="http://www.w3.org/2000/svg">
<path d="M14.62 13.84C14.62 14.9467 14.48 15.9533 14.2 16.86C13.9333 17.7533 13.52 18.5267 12.96 19.18C12.4133 19.8333 11.7133 20.3267 10.86 20.66L14.3 24.4H10.9L8.24 21.2C8.18667 21.2 8.12667 21.2 8.06 21.2C8.00667 21.2 7.95333 21.2 7.9 21.2C6.75333 21.2 5.75333 21.0267 4.9 20.68C4.06 20.32 3.36667 19.82 2.82 19.18C2.27333 18.5267 1.86 17.7467 1.58 16.84C1.31333 15.9333 1.18 14.9267 1.18 13.82C1.18 12.34 1.42 11.0533 1.9 9.96C2.39333 8.86667 3.13333 8.02 4.12 7.42C5.12 6.80667 6.38667 6.5 7.92 6.5C9.42667 6.5 10.6733 6.80667 11.66 7.42C12.6467 8.02 13.3867 8.87333 13.88 9.98C14.3733 11.0733 14.62 12.36 14.62 13.84ZM3.88 13.84C3.88 14.92 4.02 15.8467 4.3 16.62C4.59333 17.3933 5.03333 17.9867 5.62 18.4C6.22 18.8133 6.98 19.02 7.9 19.02C8.84667 19.02 9.61333 18.8133 10.2 18.4C10.7867 17.9867 11.22 17.3933 11.5 16.62C11.78 15.8467 11.92 14.92 11.92 13.84C11.92 12.2267 11.6067 10.96 10.98 10.04C10.3533 9.12 9.33333 8.66 7.92 8.66C6.98667 8.66 6.22 8.86667 5.62 9.28C5.03333 9.69333 4.59333 10.2867 4.3 11.06C4.02 11.8333 3.88 12.76 3.88 13.84Z" fill="black"/>
</svg>

<svg xmlns="http://www.w3.org/2000/svg" width="16" height="27" fill="none" viewBox="0 0 16 27"><path fill="#000" d="M14.62 13.84q0 1.66-.42 3.02a6.3 6.3 0 0 1-1.24 2.32q-.82.98-2.1 1.48l3.44 3.74h-3.4l-2.66-3.2H7.9q-1.72 0-3-.52-1.26-.54-2.08-1.5-.82-.98-1.24-2.34-.4-1.36-.4-3.02 0-2.22.72-3.86.74-1.64 2.22-2.54 1.5-.92 3.8-.92 2.26 0 3.74.92 1.48.9 2.22 2.56.74 1.64.74 3.86m-10.74 0q0 1.62.42 2.78.44 1.16 1.32 1.78.9.62 2.28.62 1.42 0 2.3-.62t1.3-1.78.42-2.78q0-2.42-.94-3.8T7.92 8.66q-1.4 0-2.3.62-.88.62-1.32 1.78-.42 1.16-.42 2.78"/></svg>
